humanity-icon-theme/Humanity/actions/48/help-about.svg

<?xml version="1.0" encoding="UTF-8" standalone="no"?>
<!-- Created with Inkscape (http://www.inkscape.org/) -->

<svg
   xmlns:dc="http://purl.org/dc/elements/1.1/"
   xmlns:cc="http://creativecommons.org/ns#"
   xmlns:rdf="http://www.w3.org/1999/02/22-rdf-syntax-ns#"
   xmlns:svg="http://www.w3.org/2000/svg"
   xmlns="http://www.w3.org/2000/svg"
   xmlns:xlink="http://www.w3.org/1999/xlink"
   xmlns:sodipodi="http://sodipodi.sourceforge.net/DTD/sodipodi-0.dtd"
   xmlns:inkscape="http://www.inkscape.org/namespaces/inkscape"
   width="48px"
   height="48px"
   id="svg3880"
   version="1.1"
   inkscape:version="0.48.0 r9654"
   sodipodi:docname="help-about.svg">
  <defs
     id="defs3882">
    <linearGradient
       inkscape:collect="always"
       xlink:href="#linearGradient8265-821-176-38-919-66-249"
       id="linearGradient3619"
       gradientUnits="userSpaceOnUse"
       gradientTransform="translate(2.9799125,-3.1216548)"
       x1="11.566265"
       y1="22.292103"
       x2="15.214532"
       y2="33.95525" />
    <linearGradient
       id="linearGradient8265-821-176-38-919-66-249">
      <stop
         id="stop2687"
         style="stop-color:#ffffff;stop-opacity:0.27450982"
         offset="0" />
      <stop
         id="stop2689"
         style="stop-color:#ffffff;stop-opacity:0"
         offset="1" />
    </linearGradient>
    <linearGradient
       inkscape:collect="always"
       xlink:href="#linearGradient3881"
       id="linearGradient3648"
       x1="29.646643"
       y1="2"
       x2="29.646643"
       y2="43.443626"
       gradientUnits="userSpaceOnUse" />
    <linearGradient
       id="linearGradient3881">
      <stop
         offset="0"
         style="stop-color:#ffffff;stop-opacity:1;"
         id="stop3883" />
      <stop
         id="stop3885"
         style="stop-color:#ffffff;stop-opacity:0.23529412;"
         offset="0.33380178" />
      <stop
         offset="0.67927718"
         style="stop-color:#ffffff;stop-opacity:0.15686275;"
         id="stop3887" />
      <stop
         offset="1"
         style="stop-color:#ffffff;stop-opacity:0.39215687;"
         id="stop3889" />
    </linearGradient>
    <radialGradient
       inkscape:collect="always"
       xlink:href="#linearGradient3846"
       id="radialGradient3627"
       gradientUnits="userSpaceOnUse"
       gradientTransform="matrix(0,2.6540647,-3.1628087,0,97.182609,-26.675837)"
       cx="13.138569"
       cy="25.625349"
       fx="13.138569"
       fy="25.625349"
       r="13.931416" />
    <linearGradient
       id="linearGradient3846">
      <stop
         id="stop3848"
         style="stop-color:#fff3cb;stop-opacity:1"
         offset="0" />
      <stop
         id="stop3850"
         style="stop-color:#fdde76;stop-opacity:1"
         offset="0.26238" />
      <stop
         id="stop3852"
         style="stop-color:#f9c440;stop-opacity:1"
         offset="0.66093999" />
      <stop
         id="stop3854"
         style="stop-color:#e48b20;stop-opacity:1"
         offset="1" />
    </linearGradient>
    <linearGradient
       inkscape:collect="always"
       xlink:href="#linearGradient3856"
       id="linearGradient3629"
       gradientUnits="userSpaceOnUse"
       gradientTransform="matrix(1.6508808,0,0,1.6568311,-11.466494,-15.045759)"
       x1="21.483376"
       y1="36.255058"
       x2="21.483376"
       y2="9.5799999" />
    <linearGradient
       id="linearGradient3856">
      <stop
         id="stop3858"
         style="stop-color:#b67926;stop-opacity:1"
         offset="0" />
      <stop
         id="stop3860"
         style="stop-color:#eab41a;stop-opacity:1"
         offset="1" />
    </linearGradient>
    <linearGradient
       id="linearGradient8838">
      <stop
         id="stop8840"
         style="stop-color:#000000;stop-opacity:1"
         offset="0" />
      <stop
         id="stop8842"
         style="stop-color:#000000;stop-opacity:0"
         offset="1" />
    </linearGradient>
    <radialGradient
       r="10.625"
       fy="4.625"
       fx="62.625"
       cy="4.625"
       cx="62.625"
       gradientTransform="matrix(2.1647059,0,0,0.84705771,-111.56471,35.082353)"
       gradientUnits="userSpaceOnUse"
       id="radialGradient3878"
       xlink:href="#linearGradient8838"
       inkscape:collect="always" />
  </defs>
  <sodipodi:namedview
     id="base"
     pagecolor="#ffffff"
     bordercolor="#666666"
     borderopacity="1.0"
     inkscape:pageopacity="0.0"
     inkscape:pageshadow="2"
     inkscape:zoom="7"
     inkscape:cx="24"
     inkscape:cy="24"
     inkscape:current-layer="layer1"
     showgrid="true"
     inkscape:grid-bbox="true"
     inkscape:document-units="px"
     inkscape:window-width="453"
     inkscape:window-height="440"
     inkscape:window-x="413"
     inkscape:window-y="192"
     inkscape:window-maximized="0" />
  <metadata
     id="metadata3885">
    <rdf:RDF>
      <cc:Work
         rdf:about="">
        <dc:format>image/svg+xml</dc:format>
        <dc:type
           rdf:resource="http://purl.org/dc/dcmitype/StillImage" />
        <dc:title></dc:title>
      </cc:Work>
    </rdf:RDF>
  </metadata>
  <g
     id="layer1"
     inkscape:label="Layer 1"
     inkscape:groupmode="layer">
    <path
       inkscape:connector-curvature="0"
       style="opacity:0.3;fill:url(#radialGradient3878);fill-opacity:1;fill-rule:evenodd;stroke:none;stroke-width:0.99999988;marker:none;visibility:visible;display:inline;overflow:visible"
       id="path8836"
       d="m 47,39 c 0,4.970563 -10.297453,9 -23,9 -12.702548,0 -23,-4.029437 -23,-9 0,-4.970563 10.297452,-9 23,-9 12.702547,0 23,4.029437 23,9 l 0,0 z" />
    <path
       inkscape:connector-curvature="0"
       style="fill:url(#radialGradient3627);fill-opacity:1;fill-rule:nonzero;stroke:url(#linearGradient3629);stroke-width:0.9922713;stroke-linecap:butt;stroke-linejoin:round;stroke-miterlimit:4;stroke-opacity:1;stroke-dasharray:none;stroke-dashoffset:0;marker:none;visibility:visible;display:inline;overflow:visible"
       id="path1307"
       d="m 23.999999,1.4961347 c 1.518797,0 6.415369,12.2754723 7.644103,13.1714173 1.228732,0.895944 14.374596,1.776317 14.843931,3.225986 0.469334,1.449669 -9.650283,9.916699 -10.119617,11.366368 -0.469334,1.449669 2.758685,14.269241 1.529951,15.165186 -1.228733,0.895944 -12.379571,-6.146615 -13.89837,-6.146615 -1.518797,0 -12.669635,7.042559 -13.898369,6.146615 C 8.8728956,43.529147 12.100914,30.709574 11.63158,29.259906 11.162246,27.810237 1.0426298,19.343205 1.5119642,17.893536 1.9812985,16.443869 15.127162,15.563496 16.355896,14.667552 17.584628,13.771607 22.481202,1.4961347 23.999999,1.4961347 z" />
    <path
       style="opacity:0.8;fill:none;stroke:url(#linearGradient3648);stroke-width:0.99999994;stroke-linecap:butt;stroke-linejoin:round;stroke-miterlimit:4;stroke-opacity:1;stroke-dasharray:none;stroke-dashoffset:0;marker:none;visibility:visible;display:inline;overflow:visible"
       id="path1309"
       d="m 24,2.5 c 2.255601,4.3171106 4.478429,8.952433 6.73403,13.269542 4.843973,0.789864 10.26201,1.380836 14.771263,2.50542 -3.449934,3.457984 -6.875961,7.131147 -10.325895,10.589132 0.738138,4.805274 1.300453,9.696699 2.038592,14.501973 C 32.830213,41.18611 28.355003,39.093584 23.967226,36.913625 19.579447,39.093584 15.19167,41.273542 10.803892,43.453499 11.542029,38.648225 11.929163,33.581617 12.6673,28.776343 9.2173666,25.318358 5.9355586,21.692246 2.4856257,18.234262 7.329597,17.444398 12.356449,16.559406 17.20042,15.769542 19.456021,11.452433 21.744398,6.8171106 24,2.5 z"
       inkscape:connector-curvature="0"
       sodipodi:nodetypes="ccccccccccc" />
    <path
       inkscape:connector-curvature="0"
       style="opacity:0.8;fill:url(#linearGradient3619);fill-opacity:1;fill-rule:nonzero;stroke:none;stroke-width:1;marker:none;visibility:visible;display:inline;overflow:visible;enable-background:accumulate"
       id="path3382"
       d="m 24.023909,2.0218291 c 0,0 4.502337,7.4701031 7.020932,13.3173589 4.843973,0.789864 10.309827,1.404745 14.914715,2.720597 0,0 -2.463879,2.468624 -3.480641,3.487759 0,0 -31.782299,5.712288 -31.782299,5.712288 C 7.7999341,24.283482 4.5120994,21.39468 1.9615429,18.048297 5.5144527,16.97153 12.093455,16.105144 16.937426,15.31528 20.29282,7.4118887 24.023909,2.0218291 24.023909,2.0218291 z" />
  </g>
</svg>

<?xml version="1.0" encoding="UTF-8" standalone="no"?>
<!-- Created with Inkscape (http://www.inkscape.org/) -->
<svg id="svg3692" xmlns:rdf="http://www.w3.org/1999/02/22-rdf-syntax-ns#" xmlns="http://www.w3.org/2000/svg" height="48px" width="48px" version="1.1" xmlns:cc="http://creativecommons.org/ns#" xmlns:xlink="http://www.w3.org/1999/xlink" xmlns:dc="http://purl.org/dc/elements/1.1/">
 <defs id="defs3694">
  <linearGradient id="linearGradient3619" y2="33.955" gradientUnits="userSpaceOnUse" x2="15.215" gradientTransform="translate(2.9799 -3.1217)" y1="22.292" x1="11.566">
   <stop id="stop2687" style="stop-color:#fff;stop-opacity:.27451" offset="0"/>
   <stop id="stop2689" style="stop-color:#fff;stop-opacity:0" offset="1"/>
  </linearGradient>
  <linearGradient id="linearGradient3648" y2="43.444" gradientUnits="userSpaceOnUse" x2="29.647" y1="2" x1="29.647">
   <stop id="stop3644" style="stop-color:#fff" offset="0"/>
   <stop id="stop3646" style="stop-color:#fff;stop-opacity:0" offset="1"/>
  </linearGradient>
  <radialGradient id="radialGradient3627" gradientUnits="userSpaceOnUse" cy="25.625" cx="13.139" gradientTransform="matrix(0 2.6541 -3.1628 0 97.183 -26.676)" r="13.931">
   <stop id="stop3692" style="stop-color:#ffeb9f" offset="0"/>
   <stop id="stop3694" style="stop-color:#ffd57e" offset=".26238"/>
   <stop id="stop3696" style="stop-color:#ffbc43" offset=".66094"/>
   <stop id="stop3698" style="stop-color:#ff921a" offset="1"/>
  </radialGradient>
  <linearGradient id="linearGradient3629" y2="9.58" gradientUnits="userSpaceOnUse" x2="21.483" gradientTransform="matrix(1.6509 0 0 1.6568 -11.466 -15.046)" y1="36.255" x1="21.483">
   <stop id="stop3605" style="stop-color:#a7651c" offset="0"/>
   <stop id="stop3607" style="stop-color:#c8a700" offset="1"/>
  </linearGradient>
  <radialGradient id="radialGradient3690" gradientUnits="userSpaceOnUse" cx="62.625" cy="4.625" r="10.625" gradientTransform="matrix(2.1647 0 0 .84706 -111.56 35.082)">
   <stop id="stop8840" offset="0"/>
   <stop id="stop8842" style="stop-opacity:0" offset="1"/>
  </radialGradient>
 </defs>
 <metadata id="metadata3697">
  <rdf:RDF>
   <cc:Work rdf:about="">
    <dc:format>image/svg+xml</dc:format>
    <dc:type rdf:resource="http://purl.org/dc/dcmitype/StillImage"/>
    <dc:title/>
   </cc:Work>
  </rdf:RDF>
 </metadata>
 <g id="layer1">
  <path id="path8836" style="opacity:.3;fill-rule:evenodd;fill:url(#radialGradient3690)" d="m47 39c0 4.9706-10.297 9-23 9s-23-4.0294-23-9 10.297-9 23-9 23 4.0294 23 9z"/>
  <path id="path1307" style="stroke-linejoin:round;stroke:url(#linearGradient3629);stroke-width:.99227;fill:url(#radialGradient3627)" d="m24 1.4961c1.5188 0 6.4154 12.275 7.6441 13.171 1.2287 0.89594 14.375 1.7763 14.844 3.226 0.46933 1.4497-9.6503 9.9167-10.12 11.366-0.46933 1.4497 2.7587 14.269 1.53 15.165-1.2287 0.89594-12.38-6.1466-13.898-6.1466-1.5188 0-12.67 7.0426-13.898 6.1466-1.2291-0.895 1.999-13.714 1.53-15.164-0.47-1.45-10.589-9.917-10.12-11.366 0.4693-1.45 13.615-2.331 14.844-3.226 1.229-0.896 6.125-13.172 7.644-13.172z"/>
  <path id="path11014" style="opacity:.3;stroke:#fff;fill:none" d="m36.458 42.855s-4.3184-3.7426-10.076-4.8942"/>
  <path id="path11985" style="opacity:.3;stroke:#fff;fill:none" d="m11.176 42.855s4.3184-3.7426 10.076-4.8942"/>
  <path id="path1309" style="opacity:.4;stroke-linejoin:round;stroke:url(#linearGradient3648);fill:none" d="m24 2.5c2.2556 4.3171 4.4784 8.9524 6.734 13.27 4.844 0.78986 10.262 1.3808 14.771 2.5054-3.4499 3.458-6.876 7.1311-10.326 10.589 0.73814 4.8053 1.213 9.2595 1.9512 14.065-4.387-2.18-8.775-4.36-13.163-6.54-4.388 2.18-8.775 4.36-13.163 6.54 0.738-4.805 1.125-9.347 1.863-14.153-3.4496-3.458-6.7314-7.084-10.181-10.542 4.8436-0.79 9.87-1.675 14.714-2.464 2.256-4.318 4.544-8.9529 6.8-13.27z"/>
  <path id="path3382" style="opacity:.8;fill:url(#linearGradient3619)" d="m24.024 2.0218s4.5023 7.4701 7.0209 13.317c4.844 0.78986 10.31 1.4047 14.915 2.7206 0 0-2.4639 2.4686-3.4806 3.4878 0 0-31.782 5.7123-31.782 5.7123-2.8971-2.977-6.1849-5.865-8.7355-9.212 3.553-1.076 10.132-1.943 14.976-2.733 3.355-7.9031 7.086-13.293 7.086-13.293z"/>
 </g>
</svg>
